X: 16174
T: Green Mountain, The
R: reel
M: 4/4
K: Dmajor
B|A~F3 AFEF|D~F3 ABde|f2df efdB|Adfd efdB|
A~F3 AFEF|D~F3 ABde|f2df efdB|AFEF D3:|
e|faaf bzaf|defd e2de|f2df efdB|Adfd efde|
faaf bzaf|defd e2de|f2df efdB|AFEF D3:|

